X:233
T:German Boor Dance. VWMLa.233
%%VWML:Anon2-3049-p152-0
F:http://www.vwml.org/record/Anon2/3049/p152
S:Anon. MS, late 18thC, Vaughan Williams Mem. Library
N:Not "Boot Dance"? PJH.
O:England;Yorkshire
Z:vmp/efdss.Simon Wilson. Reviewed PJH 2008.
M:2/4
L:1/8
Q:1/4=120
K:A
A|(A2E)>A|B2E>c|dcBA|B/A/G/F/ EA|\
(A2E)>A|(B2E)B/c/|dcBc|A2z:|
|:c/d/|eeee|eeee|fefg|\
a3e|(f2d)>f|(e2c)>e|
dcBA|B/A/G/F/ EA|(A2E)>A|\
(B2E)B/c/|dcBc|A3:|
